**kern	**kern	**dynam
*part1	*part1	*part1
*staff2	*staff1	*
*I"Piano	*	*
*clefF4	*clefG2	*
*k[b-e-a-]	*k[b-e-a-]	*
=1	=1	=1
8EE-	8e-L	pp
8r	8G 8B-	>
8E-	8g	.
8r	8GJ 8B-	.
8EE-	8e-L	.
8r	8G 8B-	.
8E-	8g	.
8r	8GJ 8B-	.
=	=	=
8EE-	8e-L	.
8r	8G 8B-	.
8E-	8g	.
8r	8GJ 8B-	.
4r	8GL 8B- 8f	.
.	8G 8B- 8e-	.
8EE-L	8G 8B- 8d	.
8EE-J	8GJ 8B- 8e-	.
=	=	=
8BBB-	8fL	] pp
8r	8A- 8d	>
8BB-	8b-	.
8r	8A-J 8d	.
8BBB-	8fL	.
8r	8A- 8d	.
8BB-	8b-	.
8r	8A-J 8d	.
=	=	=
8BBB-	8fL	.
8r	8A- 8d	.
8BB-	8b-	.
8r	8A-J 8d	.
4r	8A-L 8d 8a-	.
.	8A- 8d 8g	.
8BBB-L	8A- 8d 8f	.
8BBB-J	8A-J 8d 8g	.
=	=	=
4EE-	8e-L	] pp
.	8E- 8G	.
4r	8B-	.
.	8E-J 8G	.
4EE-	8e-L	.
.	8E- 8G	.
4r	8B-	.
.	8E-J 8G	.
=	=	=
4EE-	4E- 4G 4e-	.
4r	4r	.
4EE- 4BB- 4E-	4B- 4g	.
4r	4r	.
=	=	=
2EE- 2BB- 2E-	2G 2e-	.
2r	2r	.
==	==	==
*-	*-	*-
!!!system-decoration: {(s1,s2)}
